X:1
T:Pomp and Circumstance March No. 1 (Trio)
C:Edward Elgar
M:4/4
L:1/4
Q:1/4=88
K:D
G3/2 A/ B A | G3/2 E/ G d | d3/2 B/ A G | F#3 D | B3 d | d3 d | d3/2 B/ A G | A4 | F#3/2 G/ A G | F#3 D | A3/2 G/ F# E | D4 |]
